dist/img/basket/delete.svg

<svg width="30" height="30" viewBox="0 0 30 30" fill="none" xmlns="http://www.w3.org/2000/svg">
<path d="M19.0214 5.35355L19.1679 5.5H19.375H23.25V7H6.75V5.5H10.625H10.8321L10.9786 5.35355L12.0821 4.25H17.9179L19.0214 5.35355ZM10 25.75C8.90114 25.75 8 24.8489 8 23.75V9.25H22V23.75C22 24.8489 21.0989 25.75 20 25.75H10Z" fill="#C9C9C9" stroke="#C9C9C9"/>
</svg>

<svg width="30" height="30" fill="none" xmlns="http://www.w3.org/2000/svg"><path d="m19.021 5.354.147.146h4.082V7H6.75V5.5h4.082l.147-.146 1.103-1.104h5.836l1.103 1.104ZM10 25.75c-1.099 0-2-.901-2-2V9.25h14v14.5c0 1.099-.901 2-2 2H10Z" fill="#C9C9C9" stroke="#C9C9C9"/></svg>
